arcticons-light/symbolic/actions/document-print-symbolic.svg

<?xml version="1.0" encoding="UTF-8" standalone="no"?>
<svg
   id="a"
   viewBox="0 0 48 48"
   version="1.1"
   sodipodi:docname="document-print.svg"
   xmlns:inkscape="http://www.inkscape.org/namespaces/inkscape"
   xmlns:sodipodi="http://sodipodi.sourceforge.net/DTD/sodipodi-0.dtd"
   xmlns="http://www.w3.org/2000/svg"
   xmlns:svg="http://www.w3.org/2000/svg">
  <sodipodi:namedview
     id="namedview4"
     pagecolor="#ffffff"
     bordercolor="#666666"
     borderopacity="1.0"
     inkscape:showpageshadow="2"
     inkscape:pageopacity="0.0"
     inkscape:pagecheckerboard="0"
     inkscape:deskcolor="#d1d1d1" />
  <defs
     id="defs1">
    <style
       id="style1">.b{fill:#000;}.c{fill:none;stroke:#000;stroke-linecap:round;stroke-linejoin:round;stroke-width:2px;}</style>
  </defs>
  <path
     style="color:#000000;fill:#000000;stroke-linecap:round;stroke-linejoin:round;-inkscape-stroke:none"
     d="M 6.4023437,19.105469 C 5.3634235,19.105469 4.5,19.968892 4.5,21.007812 v 13.503907 c 0,1.03892 0.8634235,1.902343 1.9023437,1.902343 h 8.1152343 a 1,1 0 0 0 1,-1 1,1 0 0 0 -1,-1 H 6.5 V 21.105469 h 35 v 13.308593 h -8.017578 a 1,1 0 0 0 -1,1 1,1 0 0 0 1,1 h 8.115234 c 1.03892,0 1.902344,-0.863423 1.902344,-1.902343 V 21.007812 c 0,-1.03892 -0.863424,-1.902343 -1.902344,-1.902343 z"
     id="path1" />
  <path
     style="color:#000000;fill:#000000;stroke-linecap:round;stroke-linejoin:round;-inkscape-stroke:none"
     d="m 14.517578,30.4375 a 1.0001,1.0001 0 0 0 -1,1 v 10.128906 a 1.0001,1.0001 0 0 0 1,1 h 18.964844 a 1.0001,1.0001 0 0 0 1,-1 V 31.4375 a 1.0001,1.0001 0 0 0 -1,-1 z m 1,2 h 16.964844 v 8.128906 H 15.517578 Z"
     id="rect1" />
  <path
     style="color:#000000;fill:#000000;stroke-linecap:round;stroke-linejoin:round;-inkscape-stroke:none"
     d="m 14.517578,5.4335937 a 1.0001,1.0001 0 0 0 -1,1 V 20.105469 a 1.0001,1.0001 0 0 0 1,1 H 33.482422 L 32.775391,20.8125 a 1.0001,1.0001 0 0 0 1.707031,-0.707031 V 10.433594 A 1.0001,1.0001 0 0 0 34.189453,9.7265625 l -4,-4 A 1.0001,1.0001 0 0 0 29.482422,5.4335937 Z m 1,2 h 13.550781 l 3.414063,3.4140623 v 8.257813 H 15.517578 Z"
     id="path2" />
  <path
     style="color:#000000;fill:#000000;stroke-linecap:round;stroke-linejoin:round;-inkscape-stroke:none"
     d="m 29.873047,5.4335937 a 1,1 0 0 0 -1,1 v 3.6093753 a 1.0001,1.0001 0 0 0 1,1 h 3.609375 a 1,1 0 0 0 1,-1 1,1 0 0 0 -1,-1.0000002 H 30.873047 V 6.4335937 a 1,1 0 0 0 -1,-1 z"
     id="polyline2" />
  <circle
     class="b"
     cx="39.8515"
     cy="22.8983"
     r=".75"
     id="circle2" />
  <circle
     class="b"
     cx="36.8351"
     cy="22.8983"
     r=".75"
     id="circle3" />
  <circle
     class="b"
     cx="33.8187"
     cy="22.8983"
     r=".75"
     id="circle4" />
</svg>

<?xml version="1.0" encoding="UTF-8"?>
<svg id="a" version="1.1" viewBox="0 0 48 48" xmlns="http://www.w3.org/2000/svg">
 <defs id="defs4">
  <style id="style2">.b{fill:#000;}.c{fill:none;stroke:#000;stroke-linecap:round;stroke-linejoin:round;stroke-width:2px;}</style>
 </defs>
 <path id="path6" d="m6.4023 19.105c-1.0389 0-1.9023 0.86342-1.9023 1.9023v13.504c0 1.0389 0.86342 1.9023 1.9023 1.9023h8.1152a1 1 0 0 0 1-1 1 1 0 0 0-1-1h-8.0176v-13.309h35v13.309h-8.0176a1 1 0 0 0-1 1 1 1 0 0 0 1 1h8.1152c1.0389 0 1.9023-0.86342 1.9023-1.9023v-13.504c0-1.0389-0.86342-1.9023-1.9023-1.9023z" color="#000000" stroke-linecap="round" stroke-linejoin="round" style="-inkscape-stroke:none"/>
 <path id="rect8" d="m14.518 30.438a1.0001 1.0001 0 0 0-1 1v10.129a1.0001 1.0001 0 0 0 1 1h18.965a1.0001 1.0001 0 0 0 1-1v-10.129a1.0001 1.0001 0 0 0-1-1zm1 2h16.965v8.1289h-16.965z" color="#000000" stroke-linecap="round" stroke-linejoin="round" style="-inkscape-stroke:none"/>
 <path id="path10" d="m14.518 5.4336a1.0001 1.0001 0 0 0-1 1v13.672a1.0001 1.0001 0 0 0 1 1h18.965l-0.70703-0.29297a1.0001 1.0001 0 0 0 1.707-0.70703v-9.6719a1.0001 1.0001 0 0 0-0.29297-0.70703l-4-4a1.0001 1.0001 0 0 0-0.70703-0.29297zm1 2h13.551l3.4141 3.4141v8.2578h-16.965z" color="#000000" stroke-linecap="round" stroke-linejoin="round" style="-inkscape-stroke:none"/>
 <path id="polyline12" d="m29.873 5.4336a1 1 0 0 0-1 1v3.6094a1.0001 1.0001 0 0 0 1 1h3.6094a1 1 0 0 0 1-1 1 1 0 0 0-1-1h-2.6094v-2.6094a1 1 0 0 0-1-1z" color="#000000" stroke-linecap="round" stroke-linejoin="round" style="-inkscape-stroke:none"/>
 <circle id="circle14" class="b" cx="39.852" cy="22.898" r=".75"/>
 <circle id="circle16" class="b" cx="36.835" cy="22.898" r=".75"/>
 <circle id="circle18" class="b" cx="33.819" cy="22.898" r=".75"/>
</svg>
